X: 37369
T: Sleep Soond Ida Mornin'
R: reel
M: 4/4
K: Aminor
|E|:"Am"Aaa^g a2ef|"G"gedB GABG|"Am"Aaa^g a2ef|1 "G"gedB "Am"A2zE:|2 "G"gedB "Am"A2AB||
|:"Am"cAeA cAeA|"G"BcdB G2AB|"Am"cAeA cAeA|"G"BAGB "Am"A2AB|
"Am"cAeA cAeA|"G"BcdB G2GB|"F"ABcd efga|1 "G"gedB "Am"A2AB:|2 "G"gedB "Am"A4]

